src/renderer/assets/icon/subtitleExport-hover-icon.svg

<?xml version="1.0" encoding="UTF-8"?>
<svg width="13px" height="13px" viewBox="0 0 13 13" version="1.1" xmlns="http://www.w3.org/2000/svg" xmlns:xlink="http://www.w3.org/1999/xlink">
    <!-- Generator: Sketch 53.1 (72631) - https://sketchapp.com -->
    <desc>Created with Sketch.</desc>
    <defs>
        <radialGradient cx="84.2036702%" cy="81.3988863%" fx="84.2036702%" fy="81.3988863%" r="117.705302%" gradientTransform="translate(0.842037,0.813989),scale(1.000000,0.939911),rotate(-135.674107),translate(-0.842037,-0.813989)" id="radialGradient-1">
            <stop stop-color="#FFFFFF" stop-opacity="0.775928442" offset="0%"></stop>
            <stop stop-color="#FFFFFF" stop-opacity="0.508378623" offset="100%"></stop>
        </radialGradient>
    </defs>
    <g id="Icons/subtitleExport-hover-icon" stroke="none" stroke-width="1" fill="none" fill-rule="evenodd" stroke-opacity="0.3">
        <path d="M9.800318,10.6945211 C10.0418874,10.6945211 10.237718,10.4986904 10.237718,10.2571211 L10.237718,4.92494957 C10.237718,4.68338022 10.0418874,4.48754957 9.800318,4.48754957 L9.31616833,4.48754957 C9.20681595,4.48754957 9.11816833,4.39890195 9.11816833,4.28954957 L9.11816833,3.91070849 C9.11816833,3.80135611 9.20681595,3.71270849 9.31616833,3.71270849 L10.1043509,3.71270849 C10.5874896,3.71270849 10.9791509,4.10436979 10.9791509,4.58750849 C10.9791509,4.58820724 10.9791501,4.588906 10.9791484,4.58960475 L10.9648456,10.558379 C10.9636898,11.0406979 10.5723683,11.4310828 10.0900481,11.4310828 L9.88126667,11.4310828 L2.90995192,11.4310828 C2.42763166,11.4310828 2.0363102,11.0406979 2.03515443,10.558379 L2.0208516,4.58960475 C2.02084992,4.588906 2.02084909,4.58820724 2.02084909,4.58750849 C2.02084909,4.10436979 2.41251039,3.71270849 2.89564909,3.71270849 L3.68383167,3.71270849 C3.79318405,3.71270849 3.88183167,3.80135611 3.88183167,3.91070849 L3.88183167,4.28954957 C3.88183167,4.39890195 3.79318405,4.48754957 3.68383167,4.48754957 L3.199682,4.48754957 C2.95811265,4.48754957 2.762282,4.68338022 2.762282,4.92494957 L2.762282,10.2571211 C2.762282,10.4986904 2.95811265,10.6945211 3.199682,10.6945211 L9.800318,10.6945211 Z M7.75335327,6.71646572 C7.82338906,6.65211564 7.92928481,6.6466537 8.0055695,6.7034568 C8.09327738,6.76876584 8.11143523,6.89281056 8.0461262,6.98051844 L6.70000176,8.78831914 C6.68518375,8.80821925 6.66793051,8.82618414 6.64864527,8.84179398 C6.52114838,8.9449924 6.33413287,8.92529459 6.23093445,8.79779769 L4.78545073,7.01196907 C4.72713197,6.93991892 4.72660526,6.83705217 4.78418314,6.7644086 C4.85210807,6.67871059 4.97664406,6.66430267 5.06234206,6.7322276 L6.10696815,7.56020667 L6.10696815,2.11787034 C6.10696815,1.99758272 6.20448053,1.90007034 6.32476815,1.90007034 L6.61726281,1.90007034 C6.73755043,1.90007034 6.83506281,1.99758272 6.83506281,2.11787034 L6.83506281,7.56020667 L7.75335327,6.71646572 Z" id="Combined-Shape" stroke="#FFFFFF" stroke-width="0.5" fill="url(#radialGradient-1)"></path>
    </g>
</svg>

<svg width="13" height="13" xmlns="http://www.w3.org/2000/svg">
    <defs>
        <radialGradient cx="84.204%" cy="81.399%" fx="84.204%" fy="81.399%" r="117.705%" gradientTransform="matrix(-.71538 -.65675 .69874 -.6724 .876 1.914)" id="a">
            <stop stop-color="#FFF" stop-opacity=".776" offset="0%"/>
            <stop stop-color="#FFF" stop-opacity=".508" offset="100%"/>
        </radialGradient>
    </defs>
    <path d="M9.8 10.695a.437.437 0 00.438-.438V4.925a.437.437 0 00-.438-.437h-.484a.198.198 0 01-.198-.198v-.38c0-.109.089-.197.198-.197h.788a.875.875 0 01.875.877l-.014 5.968a.875.875 0 01-.875.873H2.91a.875.875 0 01-.875-.873L2.021 4.59v-.002c0-.484.392-.875.875-.875h.788c.11 0 .198.088.198.198v.379a.198.198 0 01-.198.198H3.2a.437.437 0 00-.438.437v5.332c0 .242.196.438.438.438h6.6zM7.753 6.716a.198.198 0 01.293.265L6.7 8.788a.297.297 0 01-.47.01L4.786 7.012a.198.198 0 01.277-.28l1.045.828V2.118c0-.12.097-.218.218-.218h.292c.12 0 .218.098.218.218V7.56l.918-.844z" stroke="#FFF" stroke-width=".5" fill="url(#a)" fill-rule="evenodd" stroke-opacity=".3"/>
</svg>
